dist/img/request.svg

<svg xmlns="http://www.w3.org/2000/svg" width="12" height="16"><path fill-rule="evenodd" fill="#D68DFF" d="M5.374 0c3.516-.066 5.562 3.179 3.471 5.943-.719.95-3.036 1.699-4.576.914-.907-.462-1.581-1.299-1.893-2.133-.255-1.799.129-3.27 1.42-4.115.346-.226.669-.192.947-.457.371-.023.445-.014.631-.152zM12 16H.01c.014-.296-.026-.364 0-.762-.027-.677.058-1.714.315-2.438.515-1.45 1.566-2.923 2.84-3.657.744-.429 2.329-.645 3.155-.457l1.736.152c2.532.94 3.992 3.727 3.944 7.162z"/></svg>

<?xml version="1.0" encoding="iso-8859-1"?>
<svg xmlns="http://www.w3.org/2000/svg" xmlns:xlink="http://www.w3.org/1999/xlink" width="12px" height="16px"><path fill-rule="evenodd"  fill="rgb(214, 141, 255)"
 d="M5.374,-0.000 C8.890,-0.066 10.936,3.179 8.845,5.943 C8.126,6.893 5.809,7.642 4.269,6.857 C3.362,6.395 2.688,5.558 2.376,4.724 C2.121,2.925 2.505,1.454 3.796,0.609 C4.142,0.383 4.465,0.417 4.743,0.152 C5.114,0.129 5.188,0.138 5.374,-0.000 ZM12.000,16.000 C8.004,16.000 4.006,16.000 0.010,16.000 C0.024,15.704 -0.016,15.636 0.010,15.238 C-0.017,14.561 0.068,13.524 0.325,12.800 C0.840,11.350 1.891,9.877 3.165,9.143 C3.909,8.714 5.494,8.498 6.320,8.686 C6.899,8.736 7.477,8.787 8.056,8.838 C10.588,9.778 12.048,12.565 12.000,16.000 Z"/>
</svg>
